!!!!SEGMENT: Wil1003a-Missa_Queramus_cum_pastoribus-Kyrie.krn
!!!id: Wil1003a
!!!AGN: Mass; Kyrie
!!!SCT: Meier
!!!voices: 4
!!!COM: Adrian Willaert
!!!OPR: Missa Queramus cum pastoribus
!!!OTL: Kyrie
**kern	**kern	**kern	**kern
*part4	*part3	*part2	*part1
*staff4	*staff3	*staff2	*staff1
*I"Bassus	*I"Tenor	*I"Altus	*I"Superius
*I'B	*I'T	*I'A	*I'S
*clefF4	*clefGv2	*clefG2	*clefG2
*k[b-]	*k[b-]	*k[b-]	*k[b-]
*F:	*F:	*F:	*F:
*M2/1	*M2/1	*M2/1	*M2/1
*met(C|)	*met(C|)	*met(C|)	*met(C|)
!!section: Kyrie I
!!!OMD: Kyrie I
=1	=1	=1	=1
0r	0r	0f	0r
=2	=2	=2	=2
0r	0r	1f	0cc
.	.	1c	.
=3	=3	=3	=3
0r	0r	1.f	1cc
.	.	.	1f
.	.	4e	.
.	.	4d	.
=4	=4	=4	=4
1r	0r	2e	1cc
.	.	1f	.
[1F	.	.	2cc
.	.	4e	[2cc
.	.	4d	.
=5	=5	=5	=5
1F]	1r	2c	4cc]
.	.	.	4b-y
.	.	2d	4a
.	.	.	4g
1F	[1c	2c	1a
.	.	[2f	.
=6	=6	=6	=6
1C	1c]	2f]	1g
.	.	2e	.
[1F	1c	[1f	1r
=7	=7	=7	=7
2F]	1F	1f]	0r
2D	.	.	.
2E	[1c	1r	.
[2F	.	.	.
=8	=8	=8	=8
4F]	2c]	0r	0r
4E	.	.	.
2C	2c	.	.
2D	1B-y	.	.
2E	.	.	.
=9	=9	=9	=9
1F	1A	2r	1r
.	.	2c	.
2r	1G	2d	2r
2C	.	2e	2g
=10	=10	=10	=10
1.F	1r	2f	2.a
.	.	2d	.
.	.	.	4b-y
.	2r	[1c	1cc
2E	2G	.	.
=11	=11	=11	=11
1F	2.A	2c]	1a
.	.	1f	.
.	4B-y	.	.
[1C	1c	.	1g
.	.	4e	.
.	.	4d	.
=12	=12	=12	=12
0C]	1A	2e	0cc
.	.	1f	.
.	2G	.	.
.	[2A	2e	.
=13	=13	=13	=13
1D	2A]	1f	0r
.	4G	.	.
.	4F	.	.
1E	1G	2r	.
.	.	2c	.
=14	=14	=14	=14
1F	2F	2A	2r
.	1f	2.c	1a
1D	.	.	.
.	.	4Bni	.
.	4e	4Bni	4g
.	4d	4A	4f
=15	=15	=15	=15
1C	1e	1c	1g
2.D	1d	[1A	2f
.	.	.	[2ff
4E	.	.	.
=16	=16	=16	=16
4F	1c	1A]	2ff]
4G	.	.	.
2.A	.	.	4ee
.	.	.	4dd
.	1r	2r	1ee
4B-y	.	.	.
4c	.	2a	.
4A	.	.	.
=17	=17	=17	=17
1B-y	[0f	2f	1dd
.	.	2d	.
[1F	.	1a	1cc
=18	=18	=18	=18
1F]	1f]	1.a	1r
1r	1f	.	[1cc
.	.	4g	.
.	.	4f	.
=19	=19	=19	=19
0r	0c	2g	2cc]
.	.	2.e	4b-y
.	.	.	4a
.	.	.	2g
.	.	4f	.
.	.	2g	2ee
=20	=20	=20	=20
0F	1r	2.f	2dd
.	.	.	2.cc
.	.	8eL	.
.	.	8dJ	.
.	[1f	2c	.
.	.	.	4b-y
.	.	2d	[2a
=21	=21	=21	=21
1F	2f]	2A	2a]
.	2f	1c	4g
.	.	.	4f
1C	1e	.	2g
.	.	4B-y	[2a
.	.	4A	.
=22	=22	=22	=22
1r	1d	1B-y	2a]
.	.	.	2g
[1F	1c	2.A	2a
.	.	.	[2cc
.	.	4B-y	.
=23	=23	=23	=23
2F]	2r	2c	4cc]
.	.	.	4b-y
2F	2F	1d	2.a
1E	1G	.	.
.	.	.	4g
.	.	2c	2g
=24	=24	=24	=24
1D	2A	2d	2r
.	2B-y	2f	2f
1C	1G	2e	1g
.	.	[2c	.
=25	=25	=25	=25
1r	1F	2c]	2.a
.	.	2d	.
.	.	.	4b-y
2r	2.c	1e	1g
2C	.	.	.
.	4B-y	.	.
=26	=26	=26	=26
1D	4A	2f	1f
.	4G	.	.
.	1B-y	2.d	.
2E	.	.	2g
.	.	4c	.
2F	4A	[2c	[2a
.	4G	.	.
=27	=27	=27	=27
1D	1F	2c]	4a]
.	.	.	4g
.	.	2Bni	1f
1C	1G	[1c	.
.	.	.	2e
=28	=28	=28	=28
2.F	2.F	1c]	2f
.	.	.	1cc
4E	4G	.	.
2F	2A	1d	.
2G	2B-y	.	2b-y
=29	=29	=29	=29
2E	1.c	2r	2g
1F	.	2c	1a
.	.	1d	.
2G	2B-y	.	2b-y
=30	=30	=30	=30
2C	2G	2e	2.cc
1F	1A	2.f	.
.	.	.	4b-y
.	.	.	2a
.	.	4e	.
2G	2B-y	2d	[2g
=31	=31	=31	=31
2E	2c	[0c	2g]
2F	2A	.	1f
1C	1G	.	.
.	.	.	2e
=	=	=	=
00F	00F	00c]	00f
=||	=||	=||	=||
*M2/1	*M2/1	*M2/1	*M2/1
*met(C|)	*met(C|)	*met(C|)	*met(C|)
!!section: Christe
!!!OMD: Christe
1r	0r	1c	0r
1F	.	1c	.
=32	=32	=32	=32
1F	1c	0r	2r
.	.	.	2f
1r	1c	.	2.g
.	.	.	4a
=33	=33	=33	=33
0r	0r	2r	2b-y
.	.	2c	2cc
.	.	2.c	2a
.	.	.	[2g
.	.	4d	.
=34	=34	=34	=34
0r	2r	2e	2g]
.	1F	2f	1cc
.	.	1d	.
.	2G	.	2b-y
=35	=35	=35	=35
2r	2A	2c	2cc
1BB-y	2B-y	1d	1b-y
.	1G	.	.
2C	.	[2c	4a
.	.	.	4g
=36	=36	=36	=36
2D	2r	4c]	2f
.	.	4B-y	.
2E-i	2G	2B-y	2g
1C	2.G	4c	2r
.	.	4d	.
.	.	4e	[2g
.	4A	4c	.
=37	=37	=37	=37
1r	2B-y	2d	2g]
.	2c	2e	2g
2r	2.F	1f	2a
2D	.	.	2f
.	4G	.	.
=38	=38	=38	=38
2.D	2A	2r	2.f
.	2B-y	2d	.
4E	.	.	4g
2F	2A	2d	2a
2G	2G	2d	2b-y
=39	=39	=39	=39
[0C	1G	1e	0g
.	[1c	2r	.
.	.	[2e	.
=40	=40	=40	=40
1C]	1c]	4e]	1.cc
.	.	4f	.
.	.	2g	.
2.F	1r	2a	.
.	.	[2f	2dd
4G	.	.	.
=41	=41	=41	=41
1A	2r	2f]	1cc
.	2.c	4e	.
.	.	4d	.
1r	.	4e	2.cc
.	4d	4f	.
.	2e	2g	.
.	.	.	4b-y
=42	=42	=42	=42
1.F	2f	2c	1a
.	1d	1f	.
.	.	.	1r
2G	4c	4e	.
.	4B-y	4d	.
=43	=43	=43	=43
1.F	2c	1a	2r
.	2.A	.	2.cc
.	.	1r	.
.	4B-y	.	4dd
2E	2c	.	2ee
=44	=44	=44	=44
1D	1F	1.f	2ff
.	.	.	1dd
1r	1r	.	.
.	.	2g	4cc
.	.	.	4b-y
=45	=45	=45	=45
0r	1r	1.f	2cc
.	.	.	2.a
.	2r	.	.
.	.	.	4g
.	2A	2e	[2cc
=46	=46	=46	=46
0r	2B-y	1d	2cc]
.	2G	.	2bni
.	4A	1c	1cc
.	4B-y	.	.
.	4c	.	.
.	4d	.	.
=47	=47	=47	=47
1.c	4e	0r	0r
.	4f	.	.
.	1g	.	.
2d	2f	.	.
=48	=48	=48	=48
1c	2.e	0r	0r
.	8dL	.	.
.	8cJ	.	.
2B-y	2d	.	.
2A	2f	.	.
=49	=49	=49	=49
1G	2e	0r	0r
.	2.d	.	.
1F	.	.	.
.	4c	.	.
.	2A	.	.
=50	=50	=50	=50
2G	2B-y	1.d	0r
1B-y	2.G	.	.
.	4F	.	.
2A	[2f	2c	.
=51	=51	=51	=51
1G	2f]	2d	1r
.	2e	2B-y	.
2.F	1f	4A	[1cc
.	.	4B-y	.
.	.	4c	.
8EL	.	4d	.
8DJ	.	.	.
=52	=52	=52	=52
2C	0r	2e	2cc]
2BB-y	.	2.f	2dd
1F	.	.	1cc
.	.	4g	.
.	.	2a	.
=53	=53	=53	=53
0r	1r	2g	2b-y
.	.	1f	2a
.	[1c	.	[1g
.	.	4e	.
.	.	4d	.
=54	=54	=54	=54
2r	2c]	2e	2g]
1.F	2d	2f	2f
.	1c	1f	1a
=55	=55	=55	=55
2G	2B-y	2r	2b-y
1F	2A	2c	2.cc
.	1G	2d	.
.	.	.	4b-y
2E	.	[2c	2g
=56	=56	=56	=56
1D	1F	2c]	2a
.	.	2B-y	4g
.	.	.	4f
2C	2G	2c	2e
2BB-y	[2B-y	2d	2f
=57	=57	=57	=57
2E-X	2B-]	4e-X	2g
.	.	4d	.
2F	2A	4c	1f
.	.	4B-y	.
1C	1G	1c	.
.	.	.	2e
=	=	=	=
00F	00F	00A	00f
=||	=||	=||	=||
*M2/1	*M2/1	*M2/1	*M2/1
*met(C|)	*met(C|)	*met(C|)	*met(C|)
!!section: Kyrie II
!!!OMD: Kyrie II
0r	1.c	0r	0r
.	2d	.	.
=58	=58	=58	=58
1F	1.c	0r	1.cc
2E	.	.	.
2D	2B-y	.	2dd
=59	=59	=59	=59
2.F	1A	1.f	1.cc
4E	.	.	.
2F	1r	.	.
2G	.	2d	2b-y
=60	=60	=60	=60
1D	0r	2.f	1a
.	.	4e	.
1r	.	2f	[1dd
.	.	2g	.
=61	=61	=61	=61
1r	1.f	1.d	2dd]
.	.	.	2dd
[1B-y	.	.	1dd
.	2f	2B-y	.
=62	=62	=62	=62
2B-]	1f	2.d	2b-y
2B-y	.	.	2.dd
.	.	4e	.
1B-y	1d	2f	.
.	.	.	4cc
.	.	2d	[2b-y
=63	=63	=63	=63
1F	1r	1c	2b-]
.	.	.	2a
1B-y	[1f	1d	1b-y
=64	=64	=64	=64
2A	2f]	2c	2r
2B-y	2f	2B-y	1dd
1F	1f	4A	.
.	.	4G	.
.	.	2A	2cc
=65	=65	=65	=65
1G	1d	1B-y	2b-y
.	.	.	4a
.	.	.	4g
2.F	1f	1c	1a
4E	.	.	.
=66	=66	=66	=66
2C	1e	2.c	1g
1c	.	.	.
.	.	4d	.
.	2c	4e	2a
.	.	4f	.
2B-y	[2d	[2g	2b-y
=67	=67	=67	=67
2A	4d]	4g]	2cc
.	4c	4f	.
4G	1c	1f	2a
4F	.	.	.
1G	.	.	1b-y
.	2B-y	2e	.
=68	=68	=68	=68
[0F	1.c	1f	[0a
.	.	2r	.
.	2A	[2f	.
=69	=69	=69	=69
1F]	2.c	1f]	1a]
.	4d	.	.
2E	2e	2g	1r
2D	2f	[2f	.
=70	=70	=70	=70
2.F	1c	1f]	1.cc
4G	.	.	.
2A	1r	2e	.
2B-y	.	4d	2dd
.	.	4e	.
=71	=71	=71	=71
1.F	0r	4f	1.cc
.	.	4g	.
.	.	1a	.
2G	.	4d	2b-y
.	.	4e	.
=72	=72	=72	=72
1.F	0r	4f	1a
.	.	4g	.
.	.	1a	.
.	.	.	1cc
2E	.	2g	.
=73	=73	=73	=73
1D	1.f	1a	2dd
.	.	.	2.ff
1BB-y	.	[1d	.
.	.	.	4ee
.	2g	.	4dd
.	.	.	4cc
=74	=74	=74	=74
2.B-y	1.f	2d]	4b-y
.	.	.	4a
.	.	2.b-y	2.dd
4A	.	.	.
2B-y	.	.	.
.	.	4a	4cc
2c	2e	4g	[2cc
.	.	4f	.
=75	=75	=75	=75
1G	1d	1g	2cc]
.	.	.	2bni
2r	1c	1e	1cc
[2A	.	.	.
=76	=76	=76	=76
2A]	2F	1r	2.a
2.D	2.f	.	.
.	.	.	4g
.	.	[1a	1f
4E	4e	.	.
4F	[2d	.	.
4G	.	.	.
=77	=77	=77	=77
1A	2d]	2a]	1e
.	2c#i	2a	.
2D	1d	2.a	1r
[2F	.	.	.
.	.	4g	.
=78	=78	=78	=78
4F]	1A	1f	0r
4G	.	.	.
4A	.	.	.
4B-y	.	.	.
1c	[1A	1e	.
=79	=79	=79	=79
2.F	2A]	2c	1.cc
.	4G	2.f	.
4G	4F	.	.
2A	1c	.	.
.	.	4e	.
2F	.	[2a	2cc
=80	=80	=80	=80
2.A	2.F	4a]	2.cc
.	.	4g	.
.	.	2f	.
4B-y	4G	.	4b-y
2c	4A	2e	1a
.	4B-y	.	.
2F	[2c	2f	.
=81	=81	=81	=81
1G	4c]	1d	2g
.	4Bni	.	.
.	4Bni	.	2.g
.	4A	.	.
1r	2c	2e	.
.	.	.	4a
.	2G	[2g	4b-y
.	.	.	4cc
=82	=82	=82	=82
2r	2.B-y	4g]	2dd
.	.	4f	.
2.G	.	2.d	2g
.	4c	.	.
.	1d	.	2b-y
4F	.	4e	.
2D	.	2f	[2a
=83	=83	=83	=83
2E-X	2B-y	2g	4a]
.	.	.	4g
2C	2c	2e	1g
1D	1A	1d	.
.	.	.	2f#i
=84	=84	=84	=84
2r	1G	2.B-y	0g
1G	.	.	.
.	.	4c	.
.	2r	2d	.
4F	[2c	2G	.
4E	.	.	.
=85	=85	=85	=85
2F	4c]	2A	2r
.	4B-y	.	.
2E	2G	1c	2cc
1D	2A	.	1ff
.	2F	2B-y	.
=86	=86	=86	=86
1.C	2G	2.c	1ee
.	1g	.	.
.	.	4d	.
.	.	2e	1cc
2c	4f	2c	.
.	4e	.	.
=87	=87	=87	=87
2B-y	2f	2d	2r
1c	2e	2e	2cc
.	1d	2f	1ff
2B-y	.	2d	.
=88	=88	=88	=88
1.c	2c	4g	2ee
.	.	4f	.
.	2.g	4e	2cc
.	.	4d	.
.	.	2c	2ee
.	4e	.	.
4B-y	2f	[2d	[2dd
4A	.	.	.
=89	=89	=89	=89
2B-y	2g	4d]	4dd]
.	.	4e	4cc
2A	2c	2f	1cc
1G	[1d	2g	.
.	.	2d	2b-y
=90	=90	=90	=90
2D	1d]	1.f	2.a
2.F	.	.	.
.	.	.	4f
.	2.c	.	2a
4D	.	.	.
2E	.	4e	[2g
.	4B-y	4d	.
=91	=91	=91	=91
2F	2A	2c	4g]
.	.	.	4f
2BB-y	2B-y	2d	1f
1C	1G	1c	.
.	.	.	2e
=92	=92	=92	=92
00Fl	00Fl	00cl	00fl
==	==	==	==
*-	*-	*-	*-
!!!system-decoration: [*]
!!!RDF**kern: i = editorial accidental
!!!RDF**kern: l = terminal long
!!!ENC: Benjamin Ory
!!!END: 2022/3/23
!!!EED: Benjamin Ory
!!!EEV: 2022/03/23
!!!YEC: Copyright 2022 Benjamin Ory, All Rights Reserved
!!!ONB: Translated from MusicXML on 2022/03/23
